X: 28619
T: Music For A Found Whistle
R: jig
M: 6/8
K: Edorian
edB ABG|E3 E2D|EGA EGA|Bde dBA|
edB ABG|E3 E2D|EGA EGA|BAG AGE|
Bde BAG|E3 E2D|EGA EGA|Bde dBA|
edB ABG|E3 E2D|EGA EGA|BAG AGE||
|:edB ABd|BGA-A2E|GAB DEG|ABd edB|
edB ABd|BGA-A2E|GAB DEG|BAG AGE:|

